assets/img/team-linkedin.svg

<svg xmlns="http://www.w3.org/2000/svg" width="30" height="30" viewBox="0 0 30 30">
  <path fill="#333" fill-rule="evenodd" d="M747,353 L773,353 C774.104569,353 775,353.895431 775,355 L775,381 C775,382.104569 774.104569,383 773,383 L747,383 C745.895431,383 745,382.104569 745,381 L745,355 C745,353.895431 745.895431,353 747,353 Z M756.176778,375.068477 L756.176778,364.854907 L752.782355,364.854907 L752.782355,375.068477 L756.176778,375.068477 Z M754.479635,363.460844 C755.663215,363.460844 756.400343,362.676129 756.400343,361.695438 C756.378312,360.694004 755.663215,359.931252 754.502005,359.931252 C753.340794,359.931252 752.581635,360.694004 752.581635,361.695438 C752.581635,362.676129 753.318356,363.460844 754.457942,363.460844 L754.479635,363.460844 Z M768.41823,375.068477 L768.418365,369.212328 C768.418365,366.075161 766.743795,364.615073 764.510108,364.615073 C762.707893,364.615073 761.901011,365.606406 761.450491,366.301845 L761.450491,364.855178 L758.055662,364.855178 C758.100402,365.813567 758.055662,375.068748 758.055662,375.068748 L761.450491,375.068748 L761.450491,369.364648 C761.450491,369.059398 761.472522,368.754894 761.562274,368.536345 C761.807599,367.926523 762.366173,367.295144 763.303954,367.295144 C764.53275,367.295144 765.023942,368.231705 765.023942,369.604211 L765.023942,375.068477 L768.41823,375.068477 Z" transform="translate(-745 -353)"/>
</svg>

<?xml version="1.0" encoding="UTF-8" standalone="no"?>
<svg width="30" xmlns="http://www.w3.org/2000/svg" viewBox="0 0 30 30" height="30">
 <path fill-rule="evenodd" d="m747 353h26c1.1 0 2 0.9 2 2v26c0 1.1-0.9 2-2 2h-26c-1.1 0-2-0.9-2-2v-26c0-1.1 0.9-2 2-2zm9.18 22.07v-10.22h-3.4v10.22h3.4zm-1.7-11.61c1.18 0 1.92-0.78 1.92-1.76-0.02-1.01-0.74-1.77-1.9-1.77s-1.92 0.76-1.92 1.77c0 0.98 0.74 1.76 1.88 1.76h0.02zm13.94 11.61v-5.86c0-3.13-1.68-4.59-3.91-4.59-1.8 0-2.61 0.99-3.06 1.68v-1.44h-3.39c0.04 0.95 0 10.21 0 10.21h3.39v-5.71c0-0.3 0.02-0.61 0.11-0.82 0.25-0.61 0.81-1.24 1.74-1.24 1.23 0 1.72 0.93 1.72 2.3v5.47h3.4z" transform="translate(-745 -353)" fill="#333"/>
</svg>
